X: 5562
T: Bury The Cabbage
R: jig
M: 6/8
K: Amajor
ec ec|dB BB/c/|dc dB|cd e>c/d/|
ec ec|dB BB/c/|1 dc dB|cA A:|2 df eG|BA A||
ec ea/=g/|fd de/f/|gf gg/a/|ba ac/d/|
ec ea/=g/|fd de/f/|1 g>f ed|cA A:|2 gf ga|ba a2||

